X:1     %Music
T:The Maid of Tottenham
B: The Seeds of Love, Ed S Sedley, EFDSS, 1967
S:Tom Symes of Bredon Packington
F:http://www.folkinfo.org/songsM:6/8     %Meter
L:1/8     %
K:G
D |G2 G G2 G |G2 G (AB)B |A2 G B2 A | G3- G2
w:As I came down from Tot-ten-ham_ Up-on a mar-ket day 
 B |c2 A F2 D |B2 c d2 B |G2 G F2 F | D3- D2 
w:'Twas there I spied a bon-ny lass her cloth-ing was so gay.
F |G2 G F2 E |B3 d2 B |G2 G F2 E | D3
w: Her jour-ney was to Lon-don with but-ter-milk and whey 
 F2 E |G2 G F2 E |D/D3/2C B,2 D |E3/2E/A G/G3/2F | G3- G2  |]
w:So we both jogged on to-geth-er my boys Sing fal the dal did-dle al day.